X: 35978
T: Saratoga
R: reel
M: 4/4
K: Gmajor
|:Bc|d^cde d=cBA|Ggfg d2B2|c2ed cBAG|FGAF D2Bc|
d^cde d=cBA|Ggfg d2B2|cedc BAGF|G2B2 G2:|
|:FG|ADDD ADcD|BDDD BDdD|ADDD ADcD|BGDB, G,2B2|
ADDD ADcD|BDDD BDdB|cedc BAGF|G2B2 G2:|

